public/images/logo.svg

<?xml version="1.0" encoding="UTF-8"?>
<svg id="Layer_1" xmlns="http://www.w3.org/2000/svg" version="1.1" viewBox="0 0 1024 1024">
  <!-- Generator: Adobe Illustrator 29.8.2, SVG Export Plug-In . SVG Version: 2.1.1 Build 3)  -->
  <defs>
    <style>
      .st0 {
        fill: #9f1239;
      }

      .st1 {
        fill: #f3e7d3;
      }
    </style>
  </defs>
  <rect class="st0" x="-26.88" y="-26.88" width="1077.76" height="1077.76"/>
  <g id="FFNIGq">
    <g>
      <path class="st1" d="M469.28,268.41c2.64,1.69,6.27,2.02,9.94,5.27,25.75,22.76,26.14,54.43,21.74,86.47-3.4,63.57,4.66,132.09.08,195.08-.73,10.05-6.41,15.99-15.5,19.5-30.4-2.07-64.08,2.6-94.08,0-15.84-1.38-19.67-11.14-20.09-25.7-1.81-63.79-.29-129.95.36-193.85.21-20.81-4.44-49.18,9.26-66.98,11.49-14.92,27.12-15.52,29.72-37.28s-1.49-48.84.35-71.79c-.51-3.35-3.68-4.11-5.24-7.75-2.3-5.36-.88-19.92.41-25.95.25-1.16,1.49-4.18,2.51-4.73,1.59-.86,12.92-1.89,15.71-2.04,9.45-.51,19.53.23,29.08.09,3.89-.06,6.62-2.55,10.4.52,4.67,3.79,8.22,29.61,4.13,34.01-1.98,2.13-5.84.59-6.08,3.92,1.46,22.34-1.91,47-.02,69.05.34,4.02,4.36,20.3,7.32,22.19Z"/>
      <polygon class="st1" points="529.5 641.68 550.5 723.68 569.05 641.73 601 642.68 601 778.68 579 778.68 579.99 685.69 555.39 779.75 544.88 779.1 521 691.18 521 778.68 498 778.68 498 641.68 529.5 641.68"/>
      <path class="st1" d="M532.24,276.92c1-.86,14.58-2.15,17.21-2.28,24.02-1.23,55.05-1.21,79.08,0,4.72.24,9.76,1.67,14.77,1.23,1.73.52,2.07,1.84,2.74,3.26,5.75,12.22,10.58,39.42,12.66,53.34,5.8,38.88,9.72,79.13-27.39,103.03-14.33,9.23-32.58,11.06-34.36,31.64-1.46,16.92-1.55,50.23,0,67.08,1,10.85,7.74,19.1,17.36,23.64,7.41,3.5,22.66,4.82,27.63,8.37,3.58,2.56,4.65,5.98.35,8.25l-106.06-.53c-9.14-9.41,13.46-11.11,19.55-12.98,17.16-5.28,24.89-12.03,26.25-30.75.92-12.64,1.83-55.75-.72-66.36-3.64-15.13-24.16-20.86-35.65-29.35-33.96-25.14-32.03-58.7-27.54-97.2,2.39-20.53,7.44-40.91,14.12-60.39ZM554.8,286.98c-7.4.74-9.85.66-13.34,7.66-9.15,18.38-16.37,66.17-13.19,86.27,11.33,71.72,110.57,71.31,121.61,3.15,3.47-21.4-4.26-68.77-12.69-89.07-3.09-7.44-5.82-7.66-13.7-8.3-18.06-1.46-50.76-1.51-68.68.28Z"/>
      <polygon class="st1" points="741 641.68 768 718.68 768 643.18 769.5 641.68 789.5 641.68 791 643.18 791 778.68 769 778.68 739 695.68 739 779.68 718 778.68 718 641.68 741 641.68"/>
      <polygon class="st1" points="342 641.68 342 698.68 369 698.68 369 641.68 391 641.68 391 778.68 369 778.68 369 719.68 342 719.68 342 778.68 319 778.68 320.5 641.68 342 641.68"/>
      <path class="st1" d="M619,778.68l26.05-136.95,26.51-.11,27.45,137.06h-22l-4-26.01-26.87.14-4.13,25.87h-23ZM668,730.68l-8.01-55-9.99,55h18Z"/>
      <path class="st1" d="M920,678.68h-21.5l-1.11-1.49c4.18-16.72-21.86-22.51-24.32-6.95-3.47,21.97,19.56,28.79,31.97,40.9,28.27,27.58,19.56,74.11-26.53,69.53-19.53-1.94-31.12-20.34-29.51-38.99h21.5l1.15,1.49c-1.27,12.49,5.34,18.42,17.79,16.45,6.83-1.08,8.95-10.4,8.48-16.3-1.77-22.07-44.23-31.95-47.81-62.24-3.45-29.19,14.52-43.13,42.38-40.38,18.7,1.84,29.11,20.44,27.51,37.99Z"/>
      <path class="st1" d="M296,684.68h-23v-14.5c0-3.63-5.77-8.08-9.48-8.52-8.82-1.04-13.75,2.77-14.56,11.48-1.77,18.81-1.41,54,0,73.08.81,10.91,6.49,16.38,17.76,12.66,2.71-.89,6.28-4.96,6.28-7.71v-14.5h23v17.5c0,4.1-5.56,13.34-8.49,16.51-19.93,21.55-57.81,9.11-60.49-20.53-1.87-20.66-1.51-57.09-.06-78.03,1.76-25.51,26.28-38.85,49.32-29.23,7.2,3,19.72,15.22,19.72,23.28v18.5Z"/>
      <polygon class="st1" points="480 662.68 456 662.68 456 778.68 435 778.68 435 662.68 411 662.68 411 641.68 478.5 641.68 480 643.18 480 662.68"/>
      <path class="st1" d="M126,641.68v116h34v19.5c0,.3,1.27.77,1,1.5h-57l-1-137h23Z"/>
      <rect class="st1" x="178.95" y="641.68" width="22.05" height="137"/>
      <path class="st1" d="M201.01,862.68l9.03-32.95,11.48.93,8.97,32.04,8.54-33.97,10.96-.04-13.88,52.41-10.98.45c-1.28-.83-6.72-25.35-8.19-29.32-.39-1.07-.42-2.4-1.94-2.55l-8.11,31.9-10.76-.04-14.18-52.39,10.55.52,8.49,33.01Z"/>
      <path class="st1" d="M647.09,874.6l5.95,6.58c-6.71,11.8-8-.43-11.73-1.39-3.46.45-6.31,2.35-9.92,2.77-37.47,4.44-38.66-57.09-.85-53.92,23.01,1.93,26.41,29.23,16.54,45.95ZM639.99,864.68c4.05-8.76,1.63-24.32-9.56-25.94-22.61-3.28-22.85,38.88,1.59,32.46,1.79-1.34.24-1.44-.54-2.5-1.68-2.27-3.72-4.38-5.4-6.67l5.42-6.34,8.49,8.98Z"/>
      <path class="st1" d="M298,828.68l10.58.92,19.42,31.08v-32c3.57.45,8.36-1.35,11,1.5v51.5l-10.92-.53-20.08-32.47v33h-10v-53Z"/>
      <path class="st1" d="M465.02,862.68c2.94,2.09,4.53-8.65,5-9l8.96,2.05c-.42,5.53-3.18,10.36-5.97,14.93l11.99,10.01-10.53,2.64-6.79-5.48c-22.73,16.03-46.81-7.19-22.77-26.78-6.19-8.61-5.84-21.71,6.68-23.27,20.12-2.51,21.42,18.03,6.43,26.41l7,8.49ZM452.71,835.86c-5.62,1.68-.67,11.31,1.72,10.79,1.54-.34,5.06-5.38,4.59-7.42l-2.02-3.05c-1.36-.69-2.84-.75-4.29-.32ZM449.02,858.69c-2.92,4.53-5.76,10.82.77,13.73,3.54,1.58,12.14-.17,9.24-4.28-1.01-1.43-8.58-10.5-10.01-9.46Z"/>
      <path class="st1" d="M745.74,828.92c11.33-1.9,21.74.64,27.47,11.06,10.84,19.73-.7,46.04-25.45,42.44-27.64-4.02-25.59-49.55-2.02-53.5ZM749.76,838.9c-16.43,2.37-16.56,36.22,5.68,32.71,16.08-2.54,14.37-35.6-5.68-32.71Z"/>
      <path class="st1" d="M819.5,829.68c15.13,2.51,15.14,26.77,1.52,32.5l11.98,19.49-12.01-.48c-4.55-2.19-7.44-21.1-15.99-18.51v19h-11v-52c7.75.9,18.11-1.23,25.5,0ZM804.99,853.69c22.05,3.04,21.6-18.36-.99-13.99l.99,13.99Z"/>
      <path class="st1" d="M711,829.68v35.5c0,3.51-4.01,11.65-7.06,13.94-7.32,5.51-23.66,5.15-29.95-1.93-1.72-1.93-4.99-10.71-4.99-13.01v-34.5h11v36.5c0,7,20,8.3,20-1v-35l1.46-1.26,9.54.76Z"/>
      <path class="st1" d="M393,829.68c-.37,3.29,1.24,7.62-1.5,10h-21.5v11h19v10h-19v11h23v10h-34v-52h34Z"/>
      <path class="st1" d="M833,642.68v25.5c0,4.23-8.18,16.75-9.08,21.92-2.42,3.38-10.31,1.01-13.91.57l7.98-21.51-6.98-.48v-27l22,1Z"/>
      <polygon class="st1" points="536 829.68 536 871.68 558 871.68 558 881.68 526 881.68 526 829.68 536 829.68"/>
      <polygon class="st1" points="586 829.68 586 881.68 575 881.68 575 830.18 576.46 828.93 586 829.68"/>
      <rect class="st1" x="266" y="829.68" width="11" height="52"/>
      <path class="st1" d="M557.5,367.68c10.93,1.23,24.98,7.32,36.47,9.53,16.21,3.12,29.84,2.77,46.03-.54-.72,27.17-22.91,46.43-49.45,48.05-31.36,1.91-54.25-27.03-52.54-57.05,6.24.5,13.39-.69,19.5,0Z"/>
    </g>
  </g>
</svg>

<svg width="1024" height="1024" viewBox="0 0 1024 1024" fill="none" xmlns="http://www.w3.org/2000/svg">
<g clip-path="url(#clip0_67_2)">
<path d="M1050.88 -26.8799H-26.8799V1050.88H1050.88V-26.8799Z" fill="#9F1239"/>
<path d="M469.28 268.41C471.92 270.1 475.55 270.43 479.22 273.68C504.97 296.44 505.36 328.11 500.96 360.15C497.56 423.72 505.62 492.24 501.04 555.23C500.31 565.28 494.63 571.22 485.54 574.73C455.14 572.66 421.46 577.33 391.46 574.73C375.62 573.35 371.79 563.59 371.37 549.03C369.56 485.24 371.08 419.08 371.73 355.18C371.94 334.37 367.29 306 380.99 288.2C392.48 273.28 408.11 272.68 410.71 250.92C413.31 229.16 409.22 202.08 411.06 179.13C410.55 175.78 407.38 175.02 405.82 171.38C403.52 166.02 404.94 151.46 406.23 145.43C406.48 144.27 407.72 141.25 408.74 140.7C410.33 139.84 421.66 138.81 424.45 138.66C433.9 138.15 443.98 138.89 453.53 138.75C457.42 138.69 460.15 136.2 463.93 139.27C468.6 143.06 472.15 168.88 468.06 173.28C466.08 175.41 462.22 173.87 461.98 177.2C463.44 199.54 460.07 224.2 461.96 246.25C462.3 250.27 466.32 266.55 469.28 268.44V268.41Z" fill="#F3E7D3"/>
<path d="M529.5 641.68L550.5 723.68L569.05 641.73L601 642.68V778.68H579L579.99 685.69L555.39 779.75L544.88 779.1L521 691.18V778.68H498V641.68H529.5Z" fill="#F3E7D3"/>
<path d="M532.24 276.92C533.24 276.06 546.82 274.77 549.45 274.64C573.47 273.41 604.5 273.43 628.53 274.64C633.25 274.88 638.29 276.31 643.3 275.87C645.03 276.39 645.37 277.71 646.04 279.13C651.79 291.35 656.62 318.55 658.7 332.47C664.5 371.35 668.42 411.6 631.31 435.5C616.98 444.73 598.73 446.56 596.95 467.14C595.49 484.06 595.4 517.37 596.95 534.22C597.95 545.07 604.69 553.32 614.31 557.86C621.72 561.36 636.97 562.68 641.94 566.23C645.52 568.79 646.59 572.21 642.29 574.48L536.23 573.95C527.09 564.54 549.69 562.84 555.78 560.97C572.94 555.69 580.67 548.94 582.03 530.22C582.95 517.58 583.86 474.47 581.31 463.86C577.67 448.73 557.15 443 545.66 434.51C511.7 409.37 513.63 375.81 518.12 337.31C520.51 316.78 525.56 296.4 532.24 276.92ZM554.8 286.98C547.4 287.72 544.95 287.64 541.46 294.64C532.31 313.02 525.09 360.81 528.27 380.91C539.6 452.63 638.84 452.22 649.88 384.06C653.35 362.66 645.62 315.29 637.19 294.99C634.1 287.55 631.37 287.33 623.49 286.69C605.43 285.23 572.73 285.18 554.81 286.97L554.8 286.98Z" fill="#F3E7D3"/>
<path d="M741 641.68L768 718.68V643.18L769.5 641.68H789.5L791 643.18V778.68H769L739 695.68V779.68L718 778.68V641.68H741Z" fill="#F3E7D3"/>
<path d="M342 641.68V698.68H369V641.68H391V778.68H369V719.68H342V778.68H319L320.5 641.68H342Z" fill="#F3E7D3"/>
<path d="M619 778.68L645.05 641.73L671.56 641.62L699.01 778.68H677.01L673.01 752.67L646.14 752.81L642.01 778.68H619.01H619ZM668 730.68L659.99 675.68L650 730.68H668Z" fill="#F3E7D3"/>
<path d="M920 678.68H898.5L897.39 677.19C901.57 660.47 875.53 654.68 873.07 670.24C869.6 692.21 892.63 699.03 905.04 711.14C933.31 738.72 924.6 785.25 878.51 780.67C858.98 778.73 847.39 760.33 849 741.68H870.5L871.65 743.17C870.38 755.66 876.99 761.59 889.44 759.62C896.27 758.54 898.39 749.22 897.92 743.32C896.15 721.25 853.69 711.37 850.11 681.08C846.66 651.89 864.63 637.95 892.49 640.7C911.19 642.54 921.6 661.14 920 678.69V678.68Z" fill="#F3E7D3"/>
<path d="M296 684.68H273V670.18C273 666.55 267.23 662.1 263.52 661.66C254.7 660.62 249.77 664.43 248.96 673.14C247.19 691.95 247.55 727.14 248.96 746.22C249.77 757.13 255.45 762.6 266.72 758.88C269.43 757.99 273 753.92 273 751.17V736.67H296V754.17C296 758.27 290.44 767.51 287.51 770.68C267.58 792.23 229.7 779.79 227.02 750.15C225.15 729.49 225.51 693.06 226.96 672.12C228.72 646.61 253.24 633.27 276.28 642.89C283.48 645.89 296 658.11 296 666.17V684.67V684.68Z" fill="#F3E7D3"/>
<path d="M480 662.68H456V778.68H435V662.68H411V641.68H478.5L480 643.18V662.68Z" fill="#F3E7D3"/>
<path d="M126 641.68V757.68H160V777.18C160 777.48 161.27 777.95 161 778.68H104L103 641.68H126Z" fill="#F3E7D3"/>
<path d="M201 641.68H178.95V778.68H201V641.68Z" fill="#F3E7D3"/>
<path d="M201.01 862.68L210.04 829.73L221.52 830.66L230.49 862.7L239.03 828.73L249.99 828.69L236.11 881.1L225.13 881.55C223.85 880.72 218.41 856.2 216.94 852.23C216.55 851.16 216.52 849.83 215 849.68L206.89 881.58L196.13 881.54L181.95 829.15L192.5 829.67L200.99 862.68H201.01Z" fill="#F3E7D3"/>
<path d="M647.09 874.6L653.04 881.18C646.33 892.98 645.04 880.75 641.31 879.79C637.85 880.24 635 882.14 631.39 882.56C593.92 887 592.73 825.47 630.54 828.64C653.55 830.57 656.95 857.87 647.08 874.59L647.09 874.6ZM639.99 864.68C644.04 855.92 641.62 840.36 630.43 838.74C607.82 835.46 607.58 877.62 632.02 871.2C633.81 869.86 632.26 869.76 631.48 868.7C629.8 866.43 627.76 864.32 626.08 862.03L631.5 855.69L639.99 864.67V864.68Z" fill="#F3E7D3"/>
<path d="M298 828.68L308.58 829.6L328 860.68V828.68C331.57 829.13 336.36 827.33 339 830.18V881.68L328.08 881.15L308 848.68V881.68H298V828.68Z" fill="#F3E7D3"/>
<path d="M465.02 862.68C467.96 864.77 469.55 854.03 470.02 853.68L478.98 855.73C478.56 861.26 475.8 866.09 473.01 870.66L485 880.67L474.47 883.31L467.68 877.83C444.95 893.86 420.87 870.64 444.91 851.05C438.72 842.44 439.07 829.34 451.59 827.78C471.71 825.27 473.01 845.81 458.02 854.19L465.02 862.68ZM452.71 835.86C447.09 837.54 452.04 847.17 454.43 846.65C455.97 846.31 459.49 841.27 459.02 839.23L457 836.18C455.64 835.49 454.16 835.43 452.71 835.86ZM449.02 858.69C446.1 863.22 443.26 869.51 449.79 872.42C453.33 874 461.93 872.25 459.03 868.14C458.02 866.71 450.45 857.64 449.02 858.68V858.69Z" fill="#F3E7D3"/>
<path d="M745.74 828.92C757.07 827.02 767.48 829.56 773.21 839.98C784.05 859.71 772.51 886.02 747.76 882.42C720.12 878.4 722.17 832.87 745.74 828.92ZM749.76 838.9C733.33 841.27 733.2 875.12 755.44 871.61C771.52 869.07 769.81 836.01 749.76 838.9Z" fill="#F3E7D3"/>
<path d="M819.5 829.68C834.63 832.19 834.64 856.45 821.02 862.18L833 881.67L820.99 881.19C816.44 879 813.55 860.09 805 862.68V881.68H794V829.68C801.75 830.58 812.11 828.45 819.5 829.68ZM804.99 853.69C827.04 856.73 826.59 835.33 804 839.7L804.99 853.69Z" fill="#F3E7D3"/>
<path d="M711 829.68V865.18C711 868.69 706.99 876.83 703.94 879.12C696.62 884.63 680.28 884.27 673.99 877.19C672.27 875.26 669 866.48 669 864.18V829.68H680V866.18C680 873.18 700 874.48 700 865.18V830.18L701.46 828.92L711 829.68Z" fill="#F3E7D3"/>
<path d="M393 829.68C392.63 832.97 394.24 837.3 391.5 839.68H370V850.68H389V860.68H370V871.68H393V881.68H359V829.68H393Z" fill="#F3E7D3"/>
<path d="M833 642.68V668.18C833 672.41 824.82 684.93 823.92 690.1C821.5 693.48 813.61 691.11 810.01 690.67L817.99 669.16L811.01 668.68V641.68L833.01 642.68H833Z" fill="#F3E7D3"/>
<path d="M536 829.68V871.68H558V881.68H526V829.68H536Z" fill="#F3E7D3"/>
<path d="M586 829.68V881.68H575V830.18L576.46 828.93L586 829.68Z" fill="#F3E7D3"/>
<path d="M277 829.68H266V881.68H277V829.68Z" fill="#F3E7D3"/>
<path d="M557.5 367.68C568.43 368.91 582.48 375 593.97 377.21C610.18 380.33 623.81 379.98 640 376.67C639.28 403.84 617.09 423.1 590.55 424.72C559.19 426.63 536.3 397.69 538.01 367.67C544.25 368.17 551.4 366.98 557.51 367.67L557.5 367.68Z" fill="#F3E7D3"/>
</g>
<defs>
<clipPath id="clip0_67_2">
<rect width="1024" height="1024" rx="85" fill="white"/>
</clipPath>
</defs>
</svg>
